src/status/symbolic/semi-starred-symbolic-rtl.svg

<?xml version="1.0" encoding="UTF-8" standalone="no"?>
<svg
   xmlns:dc="http://purl.org/dc/elements/1.1/"
   xmlns:cc="http://creativecommons.org/ns#"
   xmlns:rdf="http://www.w3.org/1999/02/22-rdf-syntax-ns#"
   xmlns:svg="http://www.w3.org/2000/svg"
   xmlns="http://www.w3.org/2000/svg"
   xmlns:sodipodi="http://sodipodi.sourceforge.net/DTD/sodipodi-0.dtd"
   xmlns:inkscape="http://www.inkscape.org/namespaces/inkscape"
   id="svg6"
   version="1.1"
   width="16"
   height="16"
   sodipodi:docname="semi-starred-symbolic-rtl.svg"
   inkscape:version="0.92.3 (2405546, 2018-03-11)">
  <sodipodi:namedview
     pagecolor="#ffffff"
     bordercolor="#363636"
     borderopacity="1"
     objecttolerance="10"
     gridtolerance="10"
     guidetolerance="10"
     inkscape:pageopacity="0"
     inkscape:pageshadow="2"
     inkscape:window-width="1133"
     inkscape:window-height="820"
     id="namedview8"
     showgrid="false"
     inkscape:zoom="14.75"
     inkscape:cx="8"
     inkscape:cy="7.4576271"
     inkscape:window-x="0"
     inkscape:window-y="60"
     inkscape:window-maximized="0"
     inkscape:current-layer="svg6" />
  <metadata
     id="metadata12">
    <rdf:RDF>
      <cc:Work
         rdf:about="">
        <dc:format>image/svg+xml</dc:format>
        <dc:type
           rdf:resource="http://purl.org/dc/dcmitype/StillImage" />
        <dc:title />
      </cc:Work>
    </rdf:RDF>
  </metadata>
  <defs
     id="defs10" />
  <path
     style="opacity:1;vector-effect:none;fill:#f9c440;fill-opacity:1;stroke:none;stroke-width:1;stroke-linecap:butt;stroke-linejoin:miter;stroke-miterlimit:4;stroke-dasharray:none;stroke-dashoffset:0;stroke-opacity:1;marker:none"
     d="m 8.0390141,1.0000002 c 0.3823286,0.016107 0.7219877,0.2488647 0.875,0.5996094 l 1.4882809,3.4003906 h 3.845703 c 0.919213,0.00104 1.350733,1.1369521 0.664062,1.7480469 l -2.99414,2.6523437 1.521484,4.2636712 c 0.314746,0.887252 -0.658512,1.678594 -1.46289,1.189454 L 7.9979981,12.421875 c -1,-0.68347 -1,-0.501985 -1,-1.583985 V 4.2851564 1.871094 1.7910158 l 0.083984,-0.1914062 c 0.1592162,-0.364005 0.5187134,-0.5993261 0.916016,-0.5996094 0.013672,-2.803e-4 0.027348,-2.803e-4 0.04102,0 z m -0.04102,1 V 11.25 l 4.5000039,2.75 -1.75,-4.8984373 3.5,-3.1015625 H 9.7479981 Z"
     class="warning"
     id="path1047-9-6" />
  <path
     id="path1047-7-9"
     class="warning"
     d="m 7.9979981,2.0000002 1.75,4 h 4.4999999 l -3.5,3.1015625 L 12.497998,14 7.9979981,11.25 Z"
     style="opacity:0.3;vector-effect:none;fill:#f9c440;fill-opacity:1;stroke:none;stroke-width:1;stroke-linecap:butt;stroke-linejoin:miter;stroke-miterlimit:4;stroke-dasharray:none;stroke-dashoffset:0;stroke-opacity:1;marker:none" />
  <path
     style="opacity:0.75;vector-effect:none;fill:#555761;fill-opacity:1;stroke:none;stroke-width:1;stroke-linecap:butt;stroke-linejoin:miter;stroke-miterlimit:4;stroke-dasharray:none;stroke-dashoffset:0;stroke-opacity:1;marker:none"
     d="m 7.9979981,1 c -0.096602,6.89e-5 -0.1914539,0.014685 -0.28125,0.041016 A 1.0005882,1.0005882 0 0 1 7.9979981,1 Z M 7.69917,1.046875 C 7.6114228,1.0743839 7.5294506,1.1142619 7.4530762,1.1640625 A 1.0005882,1.0005882 0 0 1 7.69917,1.046875 Z m -0.25,0.1191406 C 7.3726705,1.2163926 7.3025851,1.2758232 7.2421387,1.3457031 A 1.0005882,1.0005882 0 0 1 7.44917,1.1660156 Z M 7.23042,1.359375 C 7.1708396,1.4308124 7.1204609,1.5116388 7.0819825,1.5996094 A 1.0005882,1.0005882 0 0 1 7.23042,1.359375 Z M 6.9979981,1.7910156 v 0.080078 2.4140624 L 6.2479981,6 h -4.5 l 3.5,3.1015625 L 3.4979981,14 7.1269043,11.783203 c 0.1258672,0.173409 0.374587,0.299325 0.8710938,0.638672 l -3.978516,2.431641 a 1.0005882,1.0005882 0 0 1 -1.46289,-1.189454 L 4.0780761,9.4003906 1.0839361,6.7480469 A 1.0005882,1.0005882 0 0 1 1.7479981,5 h 3.845703 z"
     id="path1047-9-9-27" />
</svg>

<svg version="1.1" viewBox="0 0 16 16" xmlns="http://www.w3.org/2000/svg">
 <g>
  <path class="warning" d="m8.039 1c0.38233 0.016107 0.72199 0.24886 0.875 0.59961l1.4883 3.4004h3.8457c0.91921 0.00104 1.3507 1.137 0.66406 1.748l-2.9941 2.6523 1.5215 4.2637c0.31475 0.88725-0.65851 1.6786-1.4629 1.1895l-3.9785-2.4316c-1-0.68347-1-0.50198-1-1.584v-6.5527-2.4141-0.080078l0.083984-0.19141c0.15922-0.364 0.51871-0.59933 0.91602-0.59961 0.013672-2.803e-4 0.027348-2.803e-4 0.04102 0zm-0.04102 1v9.25l4.5 2.75-1.75-4.8984 3.5-3.1016h-4.5z" fill="#f9c440"/>
  <path class="warning" d="m7.998 2 1.75 4h4.5l-3.5 3.1016 1.75 4.8984-4.5-2.75z" fill="#f9c440" opacity=".3"/>
  <path d="m7.998 1c-0.096602 6.89e-5 -0.19145 0.014685-0.28125 0.041016a1.0006 1.0006 0 0 1 0.28125-0.041016zm-0.29883 0.046875c-0.087747 0.027509-0.16972 0.067387-0.24609 0.11719a1.0006 1.0006 0 0 1 0.24609-0.11719zm-0.25 0.11914c-0.0765 0.050377-0.14658 0.10981-0.20703 0.17969a1.0006 1.0006 0 0 1 0.20703-0.17969zm-0.21875 0.19336c-0.05958 0.071437-0.10996 0.15226-0.14844 0.24023a1.0006 1.0006 0 0 1 0.14844-0.24023zm-0.23242 0.43164v0.080078 2.4141l-0.75 1.7148h-4.5l3.5 3.1016-1.75 4.8984 3.6289-2.2168c0.12587 0.17341 0.37459 0.29932 0.87109 0.63867l-3.9785 2.4316a1.0006 1.0006 0 0 1-1.4629-1.1895l1.5215-4.2637-2.9941-2.6523a1.0006 1.0006 0 0 1 0.66406-1.748h3.8457z" fill="#555761" opacity=".75"/>
 </g>
</svg>
